X:1
T:Worcester (Whinfield), 87.87.47
T:Worcester (Whinfield), 87.87.47
T:Walter Grenville Whinfield, 1892
T:Public Domain Courtesy of the Cyber Hymnal™
C:Walter Grenville Whinfield, 1892
Z:Public Domain
Z:Courtesy of the Cyber Hymnal™
%%score ( 1 2 ) ( 3 4 )
L:1/8
Q:1/4=112
M:4/4
K:C
V:1 treble 
V:2 treble 
V:3 bass 
V:4 bass 
V:1
 [G,C]2 [CE]2 [DG]2 [Gc]2 | [Ge]2 (dc) [DB]2 [GB]2 | [Ec]2 ([GB][FA]) [EG]2 ([DF][CE]) | %3
 [CD]2 (EF) [CE]4 | [G,C]2 [CE]2 [DG]2 [Gc]2 | [Ge]2 (dc) [GB]2 [GB]2 | [Ec]2 (BA) [EG]2 [GB]2 | %7
 [EA]2 (G^F) [DG]4 | [EG]2 [Ec]2 [FB]2 [FA]2 | G2 [Ge]2 [Fd]2 [Ac]2 | [Gc]4 [FB]4 | [Ec]8 |] %12
V:2
 x8 | x2 F2 x4 | x8 | x2 B,2 x4 | x8 | x2 ^F2 x4 | x2 ^F2 x4 | x2 D2 x4 | x8 | G2 x6 | x8 | x8 |] %12
V:3
 [C,E,]2 [C,G,]2 [G,B,]2 [E,C]2 | [C,C]2 [F,A,]2 G,2 [G,,D]2 | [A,,C]2 [B,,D]2 (EC) A,2 | %3
 [F,A,]2 G,2 [C,G,]4 | [C,E,]2 [C,G,]2 [G,B,]2 [E,C]2 | [C,C]2 [D,A,]2 [^F,D]2 [G,D]2 | %6
 [A,C]2 [D,D]2 [E,B,]2 [B,,D]2 | [C,C]2 [D,A,]2 [G,,B,]4 | [C,C]2 [C,G,]2 [D,G,]2 [D,B,]2 | %9
 [E,C]2 [E,B,]2 [F,A,]2 [F,D]2 | [G,E]4 [G,D]4 | [C,C]8 |] %12
V:4
 x8 | x4 G,2 x2 | x4 C,2 (D,E,) | x2 G,2 x4 | x8 | x8 | x8 | x8 | x8 | x8 | x8 | x8 |] %12

